!!!SOCIAL_FUNCTION: pastime
!!!PDT:	1943
!!!LING_GROUP: Muskogean
!!!LANG: Non-Tone
Specific Region: Oklahoma, California, Mississippi, Louisiana, Texas, Alabama
!!!REG: Southeast
!!!COM: Anon.
!!!OTL: A Dog Chases a Raccon
!!!ODT: <1933//
!!!MPN: Lapintabeseihoke [Kills it Himself, Sidney Wesley]
!!!MLC: Philadelphia, Mississippi, United States of America
!! Song was recorded in January 1933.
!!!AGN: monody
!!!AMT: simple duple
!!!RWG: Transcribed pitches, durations, and meters are only approximate.
**kern	**silbe
*ICvox	*LChoctaw
*Imale	*
*clefF4	*
*k[b-e-]	*
*M2/4	*M2/4
*MM88	*MM88
=1-	=1-
8e-	Shoo
8c	da
16c	did-
16c	-dle
16G	um
16G	a
=2	=2
8c	shoo
8c	da
16c	did-
16c	-dle
16G	um
16G	a
=3	=3
8B-	shoo
8B-	da
8F	dee
8F	you
*M3/4	*M3/4
=4	=4
8B-	ma
8G	you
4B-	coon
4r	.
*M2/4	*M2/4
=5	=5
8e-	shoo
8c	da
16c	did-
16c	-dle
16G	um
16G	a
=6	=6
8c	shoo
8c	da
16c	did-
16c	-dle
16G	um
16G	a
=7	=7
8B-	shoo
8B-	da
8F	dee
16.F	you
*	*LEnglish
32F	you
*M3/4	*M3/4
=8	=8
8.B-	got
16G	be-
8B-	-hind
8d	her
8r	.
=9	=9
.	Look
.	out
.	dog,
.	coon's
.	gone
*M2/4	*M2/4
*	*LChoctaw
=10	=10
8e-	Shoo
8c	da
16c	did-
16c	-dle
16G	um
16G	a
=11	=11
8c	shoo
8c	da
16c	did-
16c	-dle
16G	um
16G	a
=12	=12
8B-	shoo
8B-	da
8F	dee
8F	you
*M3/4	*M3/4
=13	=13
8B-	ma
8G	you
4B-	coon.
4r	.
==	==
*-	*-
!!!CNT: Choctaw
!!!TXO: Choctaw
!!!OCY: United States
!!!OCL: Frances Densmore
!!!YOR: Frances Densmore, "Choctaw Music"
!!!YOR: Bulletin 136, page 180, No. 65
!!!PPR: Smithsonian Institution, Bureau of American Ethnology
!!!PPR: Government Printing Office
!!!PDT: 1943
!!!PPP: Washington, DC, United States of America
!!!YEC: Electronic Copyright 2000 David Huron
!!!YER: August 2000
!!!YEN: United States of America
!!!ENC: David Huron
!!!RDT: August 30, 2000
!!!EEV: Release 1.0
!!!AIN: vox
